svgs/duotone/franc-sign.svg

<svg xmlns="http://www.w3.org/2000/svg" viewBox="0 0 320 512"><!--! Font Awesome Pro 6.0.0-alpha3 by @fontawesome - https://fontawesome.com License - https://fontawesome.com/license (Commercial License) --><defs><style>.fa-secondary{opacity:.4}</style></defs><path class="fa-primary" d="M320 64c0 17.67-14.31 32-32 32H112v96H256c17.69 0 32 14.33 32 32s-14.31 32-32 32H112v192c0 17.67-14.31 32-32 32s-32-14.33-32-32V64c0-17.67 14.31-32 32-32H288C305.7 32 320 46.33 320 64z"/><path class="fa-secondary" d="M0 352c0 17.67 14.31 32 32 32h16v-64H32C14.31 320 0 334.3 0 352zM192 320H112v64H192c17.69 0 32-14.33 32-32S209.7 320 192 320z"/></svg>

<svg xmlns="http://www.w3.org/2000/svg" viewBox="0 0 320 512"><!--! Font Awesome Pro 6.0.0 by @fontawesome - https://fontawesome.com License - https://fontawesome.com/license (Commercial License) Copyright 2022 Fonticons, Inc. --><defs><style>.fa-secondary{opacity:.4}</style></defs><path class="fa-primary" d="M288 32C305.7 32 320 46.33 320 64C320 81.67 305.7 96 288 96H112V192H256C273.7 192 288 206.3 288 224C288 241.7 273.7 256 256 256H112V448C112 465.7 97.67 480 80 480C62.33 480 48 465.7 48 448V64C48 46.33 62.33 32 80 32H288z"/><path class="fa-secondary" d="M48 384H32C14.33 384 0 369.7 0 352C0 334.3 14.33 320 32 320H48V384zM112 320H192C209.7 320 224 334.3 224 352C224 369.7 209.7 384 192 384H112V320z"/></svg>
